icon-themes/elementary_svg/cmd/lc_paraspaceincrease.svg

<svg height="24" width="24" xmlns="http://www.w3.org/2000/svg" xmlns:xlink="http://www.w3.org/1999/xlink"><linearGradient id="a" gradientTransform="matrix(0 -.44324 .4587 0 -19.385 24.993)" gradientUnits="userSpaceOnUse" x1="33.932" x2="33.71" y1="63.31" y2="56.766"><stop offset="0" stop-color="#fff"/><stop offset=".373" stop-color="#fff" stop-opacity=".235"/><stop offset=".687" stop-color="#fff" stop-opacity=".157"/><stop offset="1" stop-color="#fff" stop-opacity=".392"/></linearGradient><linearGradient id="b" gradientTransform="matrix(.40683 0 0 .37867 -3.452 4.458)" gradientUnits="userSpaceOnUse" x1="23.732" x2="23.732" y1="5.394" y2="39.735"><stop offset="0" stop-color="#90dbec"/><stop offset=".262" stop-color="#55c1ec"/><stop offset=".705" stop-color="#3689e6"/><stop offset="1" stop-color="#2b63a0"/></linearGradient><linearGradient id="c"><stop offset="0" stop-color="#737373"/><stop offset=".262" stop-color="#636363"/><stop offset=".705" stop-color="#4b4b4b"/><stop offset="1" stop-color="#3f3f3f"/></linearGradient><radialGradient id="d" cx="9.723" cy="-91.022" gradientTransform="matrix(-3.20778 0 0 -3.3609 45.713 -313.857)" gradientUnits="userSpaceOnUse" r="7" xlink:href="#c"/><radialGradient id="e" cx="-1.474" cy="-42.064" gradientTransform="matrix(-1.35677 0 0 -2.1857 14.474 -91.012)" gradientUnits="userSpaceOnUse" r="10" xlink:href="#c"/><radialGradient id="f" cx="-1.849" cy="-36.913" gradientTransform="matrix(-1.35677 0 0 -2.1857 14.474 -87.012)" gradientUnits="userSpaceOnUse" r="10" xlink:href="#c"/><radialGradient id="g" cx="10.198" cy="-88.921" gradientTransform="matrix(-3.20778 0 0 -3.3609 45.713 -301.857)" gradientUnits="userSpaceOnUse" r="7" xlink:href="#c"/><path d="m6.5 13.52 4.01-3.52-4.01-3.5z" display="block" fill="url(#b)" transform="matrix(0 -1 1 0 -5 16)"/><path d="m8.52 9.5-3.52-4.01-3.5 4.01z" style="display:block;opacity:.5;fill:none;stroke:#004372;stroke-linejoin:round;stroke-miterlimit:7"/><path d="m7.5 11.365 1.464-1.365-1.464-1.333z" display="block" fill="none" opacity=".401" stroke="url(#a)" stroke-miterlimit="7" transform="matrix(0 -1 1 0 -5 16)"/><path d="m21 10.5c0-.27-.288-.5-.625-.5h-8.75c-.337 0-.625.23-.625.5v1c0 .268.288.498.625.498 0 .004 8.75 0 8.75 0 .337 0 .625-.23.625-.5z" fill="#fff" opacity=".35"/><path d="m11.5 7.5v1c3-.01 6-.015 9-.025v-.975z" fill="none" stroke="url(#e)" stroke-linecap="round" stroke-linejoin="round" transform="translate(0 2)"/><path d="m21 6.5c0-.27-.346-.5-.75-.5h-10.5c-.404 0-.75.23-.75.5v1c0 .268.346.498.75.498.002.004 10.5 0 10.5 0 .404 0 .75-.23.75-.5z" fill="#fff" opacity=".35"/><g fill="none" stroke-linecap="round" stroke-linejoin="round"><path d="m9.5 3.5v1c3.667-.01 7.333-.015 11-.025v-.975z" stroke="url(#d)" transform="translate(0 2)"/><path d="m11.5 9.5v1c3-.01 6-.015 9-.025v-.975zm-2-4v1c3.667-.01 7.333-.015 11-.025v-.975z" opacity=".1" stroke="#000"/></g><path d="m21 14.5c0-.27-.288-.5-.625-.5h-8.75c-.337 0-.625.23-.625.5v1c0 .268.288.498.625.498 0 .004 8.75 0 8.75 0 .337 0 .625-.23.625-.5z" fill="#fff" opacity=".35"/><path d="m11.5 11.5v1c3-.01 6-.015 9-.025v-.975z" fill="none" stroke="url(#f)" stroke-linecap="round" stroke-linejoin="round" transform="translate(0 2)"/><path d="m11.5 13.5v1c3-.01 6-.015 9-.025v-.975z" fill="none" opacity=".1" stroke="#000" stroke-linecap="round" stroke-linejoin="round"/><path d="m21 18.5c0-.27-.346-.5-.75-.5h-10.5c-.404 0-.75.23-.75.5v1c0 .268.346.498.75.498.002.004 10.5 0 10.5 0 .404 0 .75-.23.75-.5z" fill="#fff" opacity=".35"/><path d="m9.5 15.5v1c3.667-.01 7.333-.015 11-.025v-.975z" fill="none" stroke="url(#g)" stroke-linecap="round" stroke-linejoin="round" transform="translate(0 2)"/><path d="m9.5 17.5v1c3.667-.01 7.333-.015 11-.025v-.975z" fill="none" opacity=".1" stroke="#000" stroke-linecap="round" stroke-linejoin="round"/><path d="m6.5 13.52 4.01-3.52-4.01-3.5z" display="block" fill="url(#b)" transform="matrix(0 1 1 0 -5 7.99)"/><g fill="none" stroke-miterlimit="7"><path d="m8.52 14.49-3.52 4.01-3.5-4.01z" display="block" opacity=".5" stroke="#004372" stroke-linejoin="round"/><path d="m7.5 11.365 1.464-1.365-1.464-1.333z" display="block" opacity=".401" stroke="url(#a)" transform="matrix(0 1 1 0 -5 7.99)"/></g></svg>

<svg xmlns="http://www.w3.org/2000/svg" xmlns:xlink="http://www.w3.org/1999/xlink" height="24" width="24"><defs><linearGradient x1="33.932" y1="63.31" x2="33.71" y2="56.766" id="e" xlink:href="#a" gradientUnits="userSpaceOnUse" gradientTransform="matrix(0 -.44324 .4587 0 -19.385 24.993)"/><linearGradient id="a"><stop offset="0" stop-color="#fff"/><stop offset=".373" stop-color="#fff" stop-opacity=".235"/><stop offset=".687" stop-color="#fff" stop-opacity=".157"/><stop offset="1" stop-color="#fff" stop-opacity=".392"/></linearGradient><linearGradient x1="23.732" y1="5.394" x2="23.732" y2="39.735" id="d" xlink:href="#b" gradientUnits="userSpaceOnUse" gradientTransform="matrix(.40683 0 0 .37867 -3.452 4.458)"/><linearGradient id="b"><stop offset="0" stop-color="#90dbec"/><stop offset=".262" stop-color="#55c1ec"/><stop offset=".705" stop-color="#3689e6"/><stop offset="1" stop-color="#2b63a0"/></linearGradient><linearGradient xlink:href="#b" id="j" gradientUnits="userSpaceOnUse" gradientTransform="matrix(.40683 0 0 .37867 -3.452 4.458)" x1="23.732" y1="5.394" x2="23.732" y2="39.735"/><linearGradient xlink:href="#a" id="k" gradientUnits="userSpaceOnUse" gradientTransform="matrix(0 -.44324 .4587 0 -19.385 24.993)" x1="33.932" y1="63.31" x2="33.71" y2="56.766"/></defs><linearGradient id="c"><stop offset="0" stop-color="#737373"/><stop offset=".262" stop-color="#636363"/><stop offset=".705" stop-color="#4b4b4b"/><stop offset="1" stop-color="#3f3f3f"/></linearGradient><radialGradient id="g" cx="9.723" cy="-91.022" gradientTransform="matrix(-3.20778 0 0 -3.3609 45.713 -313.857)" gradientUnits="userSpaceOnUse" r="7" xlink:href="#c"/><radialGradient id="f" cx="-1.474" cy="-42.064" gradientTransform="matrix(-1.35677 0 0 -2.1857 14.474 -91.012)" gradientUnits="userSpaceOnUse" r="10" xlink:href="#c"/><radialGradient id="h" cx="-1.849" cy="-36.913" gradientTransform="matrix(-1.35677 0 0 -2.1857 14.474 -87.012)" gradientUnits="userSpaceOnUse" r="10" xlink:href="#c"/><radialGradient id="i" cx="10.198" cy="-88.921" gradientTransform="matrix(-3.20778 0 0 -3.3609 45.713 -301.857)" gradientUnits="userSpaceOnUse" r="7" xlink:href="#c"/><g color="#000"><path d="M6.5 13.52L10.51 10 6.5 6.5z" display="block" overflow="visible" fill="url(#d)" transform="rotate(-90 5.5 10.5)"/><path d="M8.52 9.5L5 5.49 1.5 9.5h7.02z" display="block" overflow="visible" opacity=".5" fill="none" stroke="#004372" stroke-linejoin="round" stroke-miterlimit="7"/><path d="M7.5 11.365L8.964 10 7.5 8.667z" display="block" overflow="visible" opacity=".401" fill="none" stroke="url(#e)" stroke-miterlimit="7" transform="rotate(-90 5.5 10.5)"/></g><path d="M21 10.5c0-.27-.288-.5-.625-.5h-8.75c-.337 0-.625.23-.625.5v1c0 .268.288.498.625.498 0 .004 8.75 0 8.75 0 .337 0 .625-.23.625-.5z" fill="#fff" opacity=".35"/><path d="M11.5 7.5v1c3-.01 6-.015 9-.025V7.5z" stroke-linejoin="round" stroke-linecap="round" stroke="url(#f)" fill="none" transform="translate(0 2)"/><path d="M21 6.5c0-.27-.346-.5-.75-.5H9.75c-.404 0-.75.23-.75.5v1c0 .268.346.498.75.498.002.004 10.5 0 10.5 0 .404 0 .75-.23.75-.5z" fill="#fff" opacity=".35"/><g stroke-linejoin="round" stroke-linecap="round" fill="none"><path d="M9.5 3.5v1c3.667-.01 7.333-.015 11-.025V3.5h-11z" stroke="url(#g)" transform="translate(0 2)"/><path d="M11.5 9.5v1c3-.01 6-.015 9-.025V9.5zM9.5 5.5v1c3.667-.01 7.333-.015 11-.025V5.5z" stroke="#000" opacity=".1"/></g><path d="M21 14.5c0-.27-.288-.5-.625-.5h-8.75c-.337 0-.625.23-.625.5v1c0 .268.288.498.625.498 0 .004 8.75 0 8.75 0 .337 0 .625-.23.625-.5z" fill="#fff" opacity=".35"/><path d="M11.5 11.5v1c3-.01 6-.015 9-.025V11.5h-9z" stroke-linejoin="round" stroke-linecap="round" stroke="url(#h)" fill="none" transform="translate(0 2)"/><path d="M11.5 13.5v1c3-.01 6-.015 9-.025V13.5h-9z" stroke-linejoin="round" stroke-linecap="round" stroke="#000" fill="none" opacity=".1"/><path d="M21 18.5c0-.27-.346-.5-.75-.5H9.75c-.404 0-.75.23-.75.5v1c0 .268.346.498.75.498.002.004 10.5 0 10.5 0 .404 0 .75-.23.75-.5z" fill="#fff" opacity=".35"/><path d="M9.5 15.5v1c3.667-.01 7.333-.015 11-.025V15.5h-11z" stroke-linejoin="round" stroke-linecap="round" stroke="url(#i)" fill="none" transform="translate(0 2)"/><path d="M9.5 17.5v1c3.667-.01 7.333-.015 11-.025V17.5h-11z" stroke-linejoin="round" stroke-linecap="round" stroke="#000" fill="none" opacity=".1"/><g color="#000"><path d="M6.5 13.52L10.51 10 6.5 6.5z" display="block" overflow="visible" fill="url(#j)" transform="matrix(0 1 1 0 -5 7.99)"/><path d="M8.52 14.49L5 18.5l-3.5-4.01h7.02z" display="block" overflow="visible" opacity=".5" fill="none" stroke="#004372" stroke-linejoin="round" stroke-miterlimit="7"/><path d="M7.5 11.365L8.964 10 7.5 8.667z" display="block" overflow="visible" opacity=".401" fill="none" stroke="url(#k)" stroke-miterlimit="7" transform="matrix(0 1 1 0 -5 7.99)"/></g></svg>
